X:1
T:O, Sing We a Carol
T:Arthur Henry Brown (1830-1926)
T:O, Sing We a Carol
T:Public Domain
T:Public Domain
T:Public Domain
C:Arthur Henry Brown (1830-1926)
Z:Public Domain
%%score ( 1 2 ) ( 3 4 )
L:1/8
M:6/4
K:F
V:1 treble 
V:2 treble 
V:3 bass 
V:4 bass 
V:1
 (cB) | [CFA]3 [B,EG] [A,F]2 [DF]3 [CE] [B,D]2 | C4 [DF]2 [EG]4 G2 | %3
w: 1.~O, *|we a car- ol all blithe|and free, And fit|
w: 2.~For *|an- gel’s song at the birth|of Christ, With tid-|
w: 3.~True *|es were they who to Beth-|lehem led, Brought frank-|
w: 4.~Cannot *|make our offer- ings now to|Christ’s need, When His|
 [FA]3 [GB] [Ac]2 (A2 F2) [DFd]2 | ([D-G]3 [D-A][D-G]^F [DGB]2) z2 dd | c3 B A2 c2 B2 [FA]2 | %6
w: Christ- mas morn, For * the|is * * * * as cold|cold can be, Though its Lord|
w: joy be- gan; And * it|with * * * * a glo-|God in the~highest, And a bro-|
w: myrrh, and gold, Which * they|fered * * * * to Christ|man- ger bed, With a rev-|
w: around we see? “In- * as-|as * * * * to them|done the deed,” He will say,|
 [DG]4 [DB]2 (^C3 D)GG | F3 G [DF]2 D4 [B,D]2 | [A,D]6- [A,D]4 AA | =B2 c2 d2 [G-e]4 GF | %10
w: day was born; * Though its|this day was born: ’Tis|try * time for|rich and poor, And * who|
w: true for man; * Yet~’twas win-|for rich and poor, When|herds * came to|sta- ble door. Yet * ’twas|
w: love un- told. * Yet~’twas win-|for rich and poor, When|men * knelt at|sta- ble door. Yet * ’twas|
w: done to Me.” * He will|have done to Me.” ’Tis|try * time for|rich and poor, And * who|
 (E4- F2 [Ec]2) z2 ee | (f2 e2) [Fd]2 (c2 B2) AA | [FA]4 [DF]2 [^CE]4 [=C^F]2 | G3 A B2 [Gc]4 dd | %14
w: driv’n * * from a|door? * * * * * *|||
w: time * * for the|poor, * ’Tis * * a win-|the rich and poor,|And who should be driv- en|
w: time * * for the|poor, * * * * * *|||
w: driv’n * * from a|door? * * * * * *|||
 [GB]4 (D_E) [DG]4 ||"^Refrain" [Gd][Ge] | (f2 e2) [Fd]2 (c2 B2) [FA][FA] | %17
w: |||
w: Christ- ian’s * door?|who should|be * driv’n from * a Christ-|
w: |||
w: |||
 [FB]4 [Fd]2 [EG]4 [Fc]2 | [Fd]3 [Fc] [FB]2 G2 C2 [FA][FA] | [FG]4 [EB]2 [FA]4 [CF]2 | %20
w: |||
w: |||
w: |||
w: |||
 [FB]3 [Fc] [Fd]2 [Fc]4 [FA][FA] | [FG]4 [EG]2 F4 |] %22
w: ||
w: ||
w: ||
w: ||
V:2
 [CG]2 | x12 | C4 x2 G2 x4 | x6 f4 x2 | B8 E2 x2 | F6 G4 x2 | x6 A4 E2 | D4 D4 x4 | x10 [D^F]2 | %9
w: sing||for our|world|as the|on this|Lord on|a win-|the|
w: the||ings of|rang|ry to|ther- hood|ter time|the shep-|the|
w: sag-||in- cense,|of-|on His|er- ent|ter time|the wise|the|
w: we||poor all|much|we have|“Ye have|say, “Ye|a win-|the|
 G6 x2 d2 x2 | c6- G2 x4 | F4 G4 F2 x2 | x12 | D6 x ^F2 x3 | x4 G2 x4 || x2 | F4 G4 x4 | x12 | %18
w: should be|Christ- ian’s||||||||
w: win- ter|rich and|try time for||from a|And||ian’s door?||
w: win- ter|rich and||||||||
w: should be|Christ- ian’s||||||||
 x6 c4 x2 | x12 | x12 | x6 F4 |] %22
w: ||||
w: ||||
w: ||||
w: ||||
V:3
 E,2 | F,4 F,2 [B,,F,]6 | [A,,F,]4 [D,A,]2 [C,C]4 [E,C]2 | [F,C]4 [F,C]2 [D,D]4 B,,2 | %4
 G,,8 z2 [G,B,]2 | A,3 G, F,2 [E,C]4 [F,C]2 | [B,,B,]4 [G,,E,]2 (A,,3 =B,,) [^C,A,]2 | %7
 [D,A,]4 [D,A,]2 [B,,G,]4 (D,E,) | (^F,4 G,2 [D,F,]4) D,2 | D2 C2 =B,2 (E,2 F,2) [G,B,]2 | %10
 (C4 A,2 G,2) z2 [B,C]2 | [A,C]4 B,2 [E,G,]4 [F,C]2 | [D,D]4 (A,^G,) [A,,A,]4 [A,,A,]2 | %13
 [B,,G,]3 [A,,^F,] [G,,G,]2 [_E,G,]4 [D,A,]2 | [G,B,]4 (B,C) [G,,B,]4 || [G,B,][G,B,] | %16
 [A,C]4 [B,D]2 (G,2 C2) [F,C][F,C] | [D,B,]4 [B,,G,]2 [C,C]4 [A,,C]2 | %18
 [B,,B,]3 [B,,A,] [D,B,]2 [E,G,]4 [F,A,][F,A,] | [B,,D]4 [C,G,]2 [D,F,]4 [_E,A,]2 | %20
 [D,B,]3 [C,A,] [B,,B,]2 [A,,C]4 [D,D][D,D] | [B,,D]4 (CB,) [F,,F,A,]4 |] %22
V:4
 x2 | x12 | x12 | x12 | x12 | C6 x6 | x6 E,4 x2 | x10 G,,2 | D,6- x6 | G,6 C4 x2 | C,8 x4 | %11
 x4 B,2 x6 | x4 D,2 x6 | x12 | x4 G,,2 x4 || x2 | x6 E,4 x2 | x12 | x12 | x12 | x12 | x4 C,2 x4 |] %22

